!!!OTL: Von den zehn Geboten
!!!ARE: Europa, Mitteleuropa, Deutschland
!!!SCT: A0621B
!!!YEM: Copyright 1995, estate of Helmut Schaffrath.
**kern
*ICvox
*Ivox
*M4/1
*k[b-]
*F:
=1
{1cc
1cc
1dd
1cc
=2
1a
1dd
1cc
2r}
{2a
=3
1g
1a
2b-
2cc
1dd
=4
0cc
1g
1b-
=5
1a
2g
2g
1f
2r}
{2f
=6
1g
2g
2g
2cc
2dd
2cc
2b-
=7
1a
1g
1f
1g
=8
2e
2c
1d
1c
2r}
{2c
=9
1f
2a
2g
2f
2g
2a
2b-
=10
1cc
2dd
2dd
1cc
2r}
{2a
=11
2b-
2a
1g
2a
2a
1g
=12
[0f
0f]}
==
!!!AGN: Romanze, Ballade, Lied, religioeses Lied
!! Muenchner Gsgb 1586
!!!ONB: ESAC (Essen Associative Code) Database: ALTDEU
!!!AMT: simple quadruple
!!!AIN: vox
!!!EED: Helmut Schaffrath
!!!EEV: 1.0
*-
